icons/bag-circle-1.svg

<svg xmlns="http://www.w3.org/2000/svg" viewBox="0 0 24 24" fill="currentColor">
  <path d="M12 3.75c-4.58579 0-8.25 3.66421-8.25 8.25 0 2.0331.75197 3.9161 2 5.3682V13.9c0-2.0142 1.63581-3.65 3.65002-3.65H14.5c2.0142 0 3.65 1.6358 3.65 3.65v3.6223c1.3082-1.4579 2.1-3.3905 2.1-5.5223 0-4.58579-3.6642-8.25-8.25-8.25Zm0 16.5c-1.7732 0-3.40986-.5633-4.75-1.5144V13.9c0-1.1858.96424-2.15 2.15002-2.15H14.5c1.1858 0 2.15.9642 2.15 2.15v4.9323c-1.3206.896-2.9197 1.4177-4.65 1.4177ZM2.25 12c0-5.41421 4.33579-9.75 9.75-9.75 5.4142 0 9.75 4.33579 9.75 9.75 0 5.4142-4.3358 9.75-9.75 9.75-5.41962 0-9.75-4.4412-9.75-9.75Zm8.2028 1.9932c-.2799-.3053-.75435-.326-1.05969-.0461-.30534.2799-.32596.7544-.04607 1.0597 1.40956 1.5377 3.80366 1.503 5.28316.0235.2929-.2929.2929-.7677 0-1.0606-.2929-.2929-.7677-.2929-1.0606 0-.9206.9205-2.3264.8858-3.1168.0235Z"/>
</svg>

<svg width="24" height="24" viewBox="0 0 24 24" fill="none" xmlns="http://www.w3.org/2000/svg">
<path fill-rule="evenodd" clip-rule="evenodd" d="M12 3.75C7.41421 3.75 3.75 7.41421 3.75 12C3.75 14.0331 4.50197 15.9161 5.75 17.3682V13.9C5.75 11.8858 7.38581 10.25 9.40002 10.25H14.5C16.5142 10.25 18.15 11.8858 18.15 13.9V17.5223C19.4582 16.0644 20.25 14.1318 20.25 12C20.25 7.41421 16.5858 3.75 12 3.75ZM12 20.25C10.2268 20.25 8.59014 19.6867 7.25 18.7356V13.9C7.25 12.7142 8.21424 11.75 9.40002 11.75H14.5C15.6858 11.75 16.65 12.7142 16.65 13.9V18.8323C15.3294 19.7283 13.7303 20.25 12 20.25ZM2.25 12C2.25 6.58579 6.58579 2.25 12 2.25C17.4142 2.25 21.75 6.58579 21.75 12C21.75 17.4142 17.4142 21.75 12 21.75C6.58038 21.75 2.25 17.3088 2.25 12ZM10.4528 13.9932C10.1729 13.6879 9.69845 13.6672 9.39311 13.9471C9.08777 14.227 9.06715 14.7015 9.34704 15.0068C10.7566 16.5445 13.1507 16.5098 14.6302 15.0303C14.9231 14.7374 14.9231 14.2626 14.6302 13.9697C14.3373 13.6768 13.8625 13.6768 13.5696 13.9697C12.649 14.8902 11.2432 14.8555 10.4528 13.9932Z" fill="black"/>
</svg>
